icons/modern/pinched-fingers.svg

<svg width="32" height="32" viewBox="0 0 32 32" fill="none" xmlns="http://www.w3.org/2000/svg">
<path d="M23.24 2.4C22.82 2.15 22.34 2 21.82 2C20.35 2 19.16 3.19 19.16 4.66C19.16 5.74 19.81 6.67 20.74 7.09C21.09 7.39 21.63 7.88 22.15 8.56C23.24 9.96 23.79 11.49 23.79 13.08C23.79 15.39 22.61 17.29 21.61 18.47C20.18 20.17 18.49 21.17 17.49 21.51C16.12 21.97 15.38 23.46 15.84 24.83C16.21 25.93 17.23 26.62 18.33 26.62C18.61 26.62 18.89 26.58 19.17 26.48C21.41 25.73 23.83 23.99 25.64 21.84C27.2 19.99 29.05 16.97 29.05 13.07C29.03 6.3 23.47 2.55 23.24 2.4Z" fill="#FFE643"/>
<path d="M23.24 2.4C22.82 2.15 22.34 2 21.82 2C20.35 2 19.16 3.19 19.16 4.66C19.16 5.74 19.81 6.67 20.74 7.09C21.09 7.39 21.63 7.88 22.15 8.56C23.24 9.96 23.79 11.49 23.79 13.08C23.79 15.39 22.61 17.29 21.61 18.47C20.18 20.17 18.49 21.17 17.49 21.51C16.12 21.97 15.38 23.46 15.84 24.83C16.21 25.93 17.23 26.62 18.33 26.62C18.61 26.62 18.89 26.58 19.17 26.48C21.41 25.73 23.83 23.99 25.64 21.84C27.2 19.99 29.05 16.97 29.05 13.07C29.03 6.3 23.47 2.55 23.24 2.4Z" fill="url(#paint0_radial_20020_1880)"/>
<path d="M23.24 2.4C22.82 2.15 22.34 2 21.82 2C20.35 2 19.16 3.19 19.16 4.66C19.16 5.74 19.81 6.67 20.74 7.09C21.09 7.39 21.63 7.88 22.15 8.56C23.24 9.96 23.79 11.49 23.79 13.08C23.79 15.39 22.61 17.29 21.61 18.47C20.18 20.17 18.49 21.17 17.49 21.51C16.12 21.97 15.38 23.46 15.84 24.83C16.21 25.93 17.23 26.62 18.33 26.62C18.61 26.62 18.89 26.58 19.17 26.48C21.41 25.73 23.83 23.99 25.64 21.84C27.2 19.99 29.05 16.97 29.05 13.07C29.03 6.3 23.47 2.55 23.24 2.4Z" fill="url(#paint1_radial_20020_1880)"/>
<path d="M23.24 2.4C22.82 2.15 22.34 2 21.82 2C20.35 2 19.16 3.19 19.16 4.66C19.16 5.74 19.81 6.67 20.74 7.09C21.09 7.39 21.63 7.88 22.15 8.56C23.24 9.96 23.79 11.49 23.79 13.08C23.79 15.39 22.61 17.29 21.61 18.47C20.18 20.17 18.49 21.17 17.49 21.51C16.12 21.97 15.38 23.46 15.84 24.83C16.21 25.93 17.23 26.62 18.33 26.62C18.61 26.62 18.89 26.58 19.17 26.48C21.41 25.73 23.83 23.99 25.64 21.84C27.2 19.99 29.05 16.97 29.05 13.07C29.03 6.3 23.47 2.55 23.24 2.4Z" fill="url(#paint2_radial_20020_1880)"/>
<path d="M23.24 2.4C22.82 2.15 22.34 2 21.82 2C20.35 2 19.16 3.19 19.16 4.66C19.16 5.74 19.81 6.67 20.74 7.09C21.09 7.39 21.63 7.88 22.15 8.56C23.24 9.96 23.79 11.49 23.79 13.08C23.79 15.39 22.61 17.29 21.61 18.47C20.18 20.17 18.49 21.17 17.49 21.51C16.12 21.97 15.38 23.46 15.84 24.83C16.21 25.93 17.23 26.62 18.33 26.62C18.61 26.62 18.89 26.58 19.17 26.48C21.41 25.73 23.83 23.99 25.64 21.84C27.2 19.99 29.05 16.97 29.05 13.07C29.03 6.3 23.47 2.55 23.24 2.4Z" fill="url(#paint3_radial_20020_1880)"/>
<g filter="url(#filter0_i_20020_1880)">
<path d="M22.29 3.88003C21.9 3.64003 21.44 3.50003 20.96 3.48003C19.52 3.44003 18.3 4.57003 18.22 6.00003C18.21 6.15003 18.22 6.29003 18.23 6.44003C17.39 6.58003 16.63 7.08003 16.19 7.88003L10.87 17.03C10.17 18.25 8.87 19 7.46 19H3C2.45 19 2 19.45 2 20V29C2 29.55 2.45 30 3 30H10.58C14.3 30 17.95 28.88 20.98 26.72C21.62 26.27 22.25 25.75 22.86 25.17C23.5 24.61 24.11 23.99 24.67 23.33C26.23 21.48 28.08 18.46 28.08 14.56C28.09 7.79003 22.53 4.04003 22.29 3.88003ZM18.03 16.8C18.03 16.56 18.09 16.33 18.21 16.12L21.22 10.67C21.29 10.55 21.34 10.42 21.39 10.3C22.35 11.63 22.83 13.06 22.83 14.56C22.83 14.75 22.82 14.93 22.81 15.12C22.67 16.87 21.19 18.21 19.43 18.21C18.66 18.21 18.03 17.58 18.03 16.8Z" fill="#FFBD3C"/>
<path d="M22.29 3.88003C21.9 3.64003 21.44 3.50003 20.96 3.48003C19.52 3.44003 18.3 4.57003 18.22 6.00003C18.21 6.15003 18.22 6.29003 18.23 6.44003C17.39 6.58003 16.63 7.08003 16.19 7.88003L10.87 17.03C10.17 18.25 8.87 19 7.46 19H3C2.45 19 2 19.45 2 20V29C2 29.55 2.45 30 3 30H10.58C14.3 30 17.95 28.88 20.98 26.72C21.62 26.27 22.25 25.75 22.86 25.17C23.5 24.61 24.11 23.99 24.67 23.33C26.23 21.48 28.08 18.46 28.08 14.56C28.09 7.79003 22.53 4.04003 22.29 3.88003ZM18.03 16.8C18.03 16.56 18.09 16.33 18.21 16.12L21.22 10.67C21.29 10.55 21.34 10.42 21.39 10.3C22.35 11.63 22.83 13.06 22.83 14.56C22.83 14.75 22.82 14.93 22.81 15.12C22.67 16.87 21.19 18.21 19.43 18.21C18.66 18.21 18.03 17.58 18.03 16.8Z" fill="url(#paint4_radial_20020_1880)"/>
<path d="M22.29 3.88003C21.9 3.64003 21.44 3.50003 20.96 3.48003C19.52 3.44003 18.3 4.57003 18.22 6.00003C18.21 6.15003 18.22 6.29003 18.23 6.44003C17.39 6.58003 16.63 7.08003 16.19 7.88003L10.87 17.03C10.17 18.25 8.87 19 7.46 19H3C2.45 19 2 19.45 2 20V29C2 29.55 2.45 30 3 30H10.58C14.3 30 17.95 28.88 20.98 26.72C21.62 26.27 22.25 25.75 22.86 25.17C23.5 24.61 24.11 23.99 24.67 23.33C26.23 21.48 28.08 18.46 28.08 14.56C28.09 7.79003 22.53 4.04003 22.29 3.88003ZM18.03 16.8C18.03 16.56 18.09 16.33 18.21 16.12L21.22 10.67C21.29 10.55 21.34 10.42 21.39 10.3C22.35 11.63 22.83 13.06 22.83 14.56C22.83 14.75 22.82 14.93 22.81 15.12C22.67 16.87 21.19 18.21 19.43 18.21C18.66 18.21 18.03 17.58 18.03 16.8Z" fill="url(#paint5_radial_20020_1880)"/>
<path d="M22.29 3.88003C21.9 3.64003 21.44 3.50003 20.96 3.48003C19.52 3.44003 18.3 4.57003 18.22 6.00003C18.21 6.15003 18.22 6.29003 18.23 6.44003C17.39 6.58003 16.63 7.08003 16.19 7.88003L10.87 17.03C10.17 18.25 8.87 19 7.46 19H3C2.45 19 2 19.45 2 20V29C2 29.55 2.45 30 3 30H10.58C14.3 30 17.95 28.88 20.98 26.72C21.62 26.27 22.25 25.75 22.86 25.17C23.5 24.61 24.11 23.99 24.67 23.33C26.23 21.48 28.08 18.46 28.08 14.56C28.09 7.79003 22.53 4.04003 22.29 3.88003ZM18.03 16.8C18.03 16.56 18.09 16.33 18.21 16.12L21.22 10.67C21.29 10.55 21.34 10.42 21.39 10.3C22.35 11.63 22.83 13.06 22.83 14.56C22.83 14.75 22.82 14.93 22.81 15.12C22.67 16.87 21.19 18.21 19.43 18.21C18.66 18.21 18.03 17.58 18.03 16.8Z" fill="url(#paint6_radial_20020_1880)"/>
<path d="M22.29 3.88003C21.9 3.64003 21.44 3.50003 20.96 3.48003C19.52 3.44003 18.3 4.57003 18.22 6.00003C18.21 6.15003 18.22 6.29003 18.23 6.44003C17.39 6.58003 16.63 7.08003 16.19 7.88003L10.87 17.03C10.17 18.25 8.87 19 7.46 19H3C2.45 19 2 19.45 2 20V29C2 29.55 2.45 30 3 30H10.58C14.3 30 17.95 28.88 20.98 26.72C21.62 26.27 22.25 25.75 22.86 25.17C23.5 24.61 24.11 23.99 24.67 23.33C26.23 21.48 28.08 18.46 28.08 14.56C28.09 7.79003 22.53 4.04003 22.29 3.88003ZM18.03 16.8C18.03 16.56 18.09 16.33 18.21 16.12L21.22 10.67C21.29 10.55 21.34 10.42 21.39 10.3C22.35 11.63 22.83 13.06 22.83 14.56C22.83 14.75 22.82 14.93 22.81 15.12C22.67 16.87 21.19 18.21 19.43 18.21C18.66 18.21 18.03 17.58 18.03 16.8Z" fill="url(#paint7_radial_20020_1880)"/>
</g>
<path d="M16.2099 7.8431C17.0085 6.46363 18.7741 5.99271 20.1536 6.79127C21.5331 7.58982 22.004 9.35546 21.2054 10.7349L16.8906 18.4532C16.0921 19.8326 14.3335 20.0267 12.9541 19.2281C11.5746 18.4296 11.0569 16.7115 11.8555 15.3321L16.2099 7.8431Z" fill="url(#paint8_radial_20020_1880)"/>
<path d="M28.08 14.56C28.08 15.8974 27.8624 17.1313 27.5136 18.25L21.9062 24.2813L19.3437 18.25L19.3274 18.2063C19.3613 18.2088 19.3955 18.21 19.43 18.21C21.19 18.21 22.67 16.87 22.81 15.12L22.8114 15.0929C22.8209 14.9128 22.83 14.741 22.83 14.56C22.83 13.0673 22.3547 11.644 21.404 10.3195C21.9029 9.01864 21.3979 7.51156 20.1536 6.79127C19.4837 6.40348 18.8906 6.37503 18.23 6.44003L18.2291 6.42597C18.2194 6.28126 18.2103 6.14533 18.22 6.00002C18.3 4.57003 19.52 3.44003 20.96 3.48003C21.44 3.50002 21.9 3.64002 22.29 3.88003C22.53 4.04003 28.09 7.79003 28.08 14.56Z" fill="url(#paint9_radial_20020_1880)"/>
<path d="M28.08 14.56C28.08 15.8974 27.8624 17.1313 27.5136 18.25L21.9062 24.2813L19.3437 18.25L19.3274 18.2063C19.3613 18.2088 19.3955 18.21 19.43 18.21C21.19 18.21 22.67 16.87 22.81 15.12L22.8114 15.0929C22.8209 14.9128 22.83 14.741 22.83 14.56C22.83 13.0673 22.3547 11.644 21.404 10.3195C21.9029 9.01864 21.3979 7.51156 20.1536 6.79127C19.4837 6.40348 18.8906 6.37503 18.23 6.44003L18.2291 6.42597C18.2194 6.28126 18.2103 6.14533 18.22 6.00002C18.3 4.57003 19.52 3.44003 20.96 3.48003C21.44 3.50002 21.9 3.64002 22.29 3.88003C22.53 4.04003 28.09 7.79003 28.08 14.56Z" fill="url(#paint10_radial_20020_1880)"/>
<g filter="url(#filter1_f_20020_1880)">
<path d="M26.3462 12.2479C26.8599 17.1981 23.3107 22.335 19.4347 23.5025" stroke="url(#paint11_linear_20020_1880)" stroke-width="2" stroke-linecap="round"/>
</g>
<defs>
<filter id="filter0_i_20020_1880" x="2" y="2.479" width="26.58" height="27.521" filterUnits="userSpaceOnUse" color-interpolation-filters="sRGB">
<feFlood flood-opacity="0" result="BackgroundImageFix"/>
<feBlend mode="normal" in="SourceGraphic" in2="BackgroundImageFix" result="shape"/>
<feColorMatrix in="SourceAlpha" type="matrix" values="0 0 0 0 0 0 0 0 0 0 0 0 0 0 0 0 0 0 127 0" result="hardAlpha"/>
<feOffset dx="0.5" dy="-1"/>
<feGaussianBlur stdDeviation="1"/>
<feComposite in2="hardAlpha" operator="arithmetic" k2="-1" k3="1"/>
<feColorMatrix type="matrix" values="0 0 0 0 0.984314 0 0 0 0 0.521569 0 0 0 0 0.341176 0 0 0 1 0"/>
<feBlend mode="normal" in2="shape" result="effect1_innerShadow_20020_1880"/>
</filter>
<filter id="filter1_f_20020_1880" x="16.9344" y="9.7478" width="11.9615" height="16.255" filterUnits="userSpaceOnUse" color-interpolation-filters="sRGB">
<feFlood flood-opacity="0" result="BackgroundImageFix"/>
<feBlend mode="normal" in="SourceGraphic" in2="BackgroundImageFix" result="shape"/>
<feGaussianBlur stdDeviation="0.75" result="effect1_foregroundBlur_20020_1880"/>
</filter>
<radialGradient id="paint0_radial_20020_1880" cx="0" cy="0" r="1" gradientUnits="userSpaceOnUse" gradientTransform="translate(18.7187 4.21875) rotate(-4.86899) scale(4.23403 5.74969)">
<stop stop-color="#D59430"/>
<stop offset="1" stop-color="#D59430" stop-opacity="0"/>
</radialGradient>
<radialGradient id="paint1_radial_20020_1880" cx="0" cy="0" r="1" gradientUnits="userSpaceOnUse" gradientTransform="translate(23.4773 10.5575) rotate(-32.25) scale(4.48566 10.4433)">
<stop stop-color="#D59430"/>
<stop offset="0.948403" stop-color="#D59430" stop-opacity="0"/>
</radialGradient>
<radialGradient id="paint2_radial_20020_1880" cx="0" cy="0" r="1" gradientUnits="userSpaceOnUse" gradientTransform="translate(26.4129 23.5643) rotate(-65.731) scale(8.57053 2.66744)">
<stop stop-color="#D59430"/>
<stop offset="1" stop-color="#D59430" stop-opacity="0"/>
</radialGradient>
<radialGradient id="paint3_radial_20020_1880" cx="0" cy="0" r="1" gradientUnits="userSpaceOnUse" gradientTransform="translate(31.1875 17.5937) rotate(-125.623) scale(19.5296 10.2943)">
<stop offset="0.91355" stop-color="#D6B05C" stop-opacity="0"/>
<stop offset="1" stop-color="#D6B05C"/>
</radialGradient>
<radialGradient id="paint4_radial_20020_1880" cx="0" cy="0" r="1" gradientUnits="userSpaceOnUse" gradientTransform="translate(-0.312498 25.0625) rotate(-23.6561) scale(30.9972 29.5828)">
<stop offset="0.86904" stop-color="#FFE749" stop-opacity="0"/>
<stop offset="1" stop-color="#FFE749"/>
</radialGradient>
<radialGradient id="paint5_radial_20020_1880" cx="0" cy="0" r="1" gradientUnits="userSpaceOnUse" gradientTransform="translate(18.9677 17.8052) rotate(122.005) scale(6.60842 4.63172)">
<stop offset="0.140824" stop-color="#FFE031"/>
<stop offset="1" stop-color="#FFE031" stop-opacity="0"/>
</radialGradient>
<radialGradient id="paint6_radial_20020_1880" cx="0" cy="0" r="1" gradientUnits="userSpaceOnUse" gradientTransform="translate(2.2493 23.8294) scale(10.414 5.43789)">
<stop stop-color="#FFD231"/>
<stop offset="1" stop-color="#FFD231" stop-opacity="0"/>
</radialGradient>
<radialGradient id="paint7_radial_20020_1880" cx="0" cy="0" r="1" gradientUnits="userSpaceOnUse" gradientTransform="translate(9.02072 16.7395) rotate(59.8722) scale(4.09374 4.1866)">
<stop stop-color="#E19B38"/>
<stop offset="1" stop-color="#E19B38" stop-opacity="0"/>
</radialGradient>
<radialGradient id="paint8_radial_20020_1880" cx="0" cy="0" r="1" gradientUnits="userSpaceOnUse" gradientTransform="translate(20.5625 6.87503) rotate(123.389) scale(3.29358 5.05169)">
<stop stop-color="#FFE53F"/>
<stop offset="1" stop-color="#FFE53F" stop-opacity="0"/>
</radialGradient>
<radialGradient id="paint9_radial_20020_1880" cx="0" cy="0" r="1" gradientUnits="userSpaceOnUse" gradientTransform="translate(19.9687 13.6563) rotate(0.711713) scale(5.03164 5.22107)">
<stop stop-color="#E78923"/>
<stop offset="1" stop-color="#E78923" stop-opacity="0"/>
</radialGradient>
<radialGradient id="paint10_radial_20020_1880" cx="0" cy="0" r="1" gradientUnits="userSpaceOnUse" gradientTransform="translate(19.6215 10.2399) rotate(-17.6501) scale(3.23442 4.10889)">
<stop offset="0.360205" stop-color="#DA7834"/>
<stop offset="1" stop-color="#DA7834" stop-opacity="0"/>
</radialGradient>
<linearGradient id="paint11_linear_20020_1880" x1="26.9066" y1="16.1707" x2="24.539" y2="26.2506" gradientUnits="userSpaceOnUse">
<stop stop-color="#FFE338"/>
<stop offset="1" stop-color="#FFE338" stop-opacity="0"/>
</linearGradient>
</defs>
</svg>

<svg width="32" height="32" fill="none" xmlns="http://www.w3.org/2000/svg"><path d="M23.24 2.4c-.42-.25-.9-.4-1.42-.4a2.659 2.659 0 0 0-1.08 5.09c.35.3.89.79 1.41 1.47 1.09 1.4 1.64 2.93 1.64 4.52 0 2.31-1.18 4.21-2.18 5.39-1.43 1.7-3.12 2.7-4.12 3.04a2.625 2.625 0 0 0 .84 5.11c.28 0 .56-.04.84-.14 2.24-.75 4.66-2.49 6.47-4.64 1.56-1.85 3.41-4.87 3.41-8.77-.02-6.77-5.58-10.52-5.81-10.67Z" fill="#FFE643"/><path d="M23.24 2.4c-.42-.25-.9-.4-1.42-.4a2.659 2.659 0 0 0-1.08 5.09c.35.3.89.79 1.41 1.47 1.09 1.4 1.64 2.93 1.64 4.52 0 2.31-1.18 4.21-2.18 5.39-1.43 1.7-3.12 2.7-4.12 3.04a2.625 2.625 0 0 0 .84 5.11c.28 0 .56-.04.84-.14 2.24-.75 4.66-2.49 6.47-4.64 1.56-1.85 3.41-4.87 3.41-8.77-.02-6.77-5.58-10.52-5.81-10.67Z" fill="url(#a)"/><path d="M23.24 2.4c-.42-.25-.9-.4-1.42-.4a2.659 2.659 0 0 0-1.08 5.09c.35.3.89.79 1.41 1.47 1.09 1.4 1.64 2.93 1.64 4.52 0 2.31-1.18 4.21-2.18 5.39-1.43 1.7-3.12 2.7-4.12 3.04a2.625 2.625 0 0 0 .84 5.11c.28 0 .56-.04.84-.14 2.24-.75 4.66-2.49 6.47-4.64 1.56-1.85 3.41-4.87 3.41-8.77-.02-6.77-5.58-10.52-5.81-10.67Z" fill="url(#b)"/><path d="M23.24 2.4c-.42-.25-.9-.4-1.42-.4a2.659 2.659 0 0 0-1.08 5.09c.35.3.89.79 1.41 1.47 1.09 1.4 1.64 2.93 1.64 4.52 0 2.31-1.18 4.21-2.18 5.39-1.43 1.7-3.12 2.7-4.12 3.04a2.625 2.625 0 0 0 .84 5.11c.28 0 .56-.04.84-.14 2.24-.75 4.66-2.49 6.47-4.64 1.56-1.85 3.41-4.87 3.41-8.77-.02-6.77-5.58-10.52-5.81-10.67Z" fill="url(#c)"/><path d="M23.24 2.4c-.42-.25-.9-.4-1.42-.4a2.659 2.659 0 0 0-1.08 5.09c.35.3.89.79 1.41 1.47 1.09 1.4 1.64 2.93 1.64 4.52 0 2.31-1.18 4.21-2.18 5.39-1.43 1.7-3.12 2.7-4.12 3.04a2.625 2.625 0 0 0 .84 5.11c.28 0 .56-.04.84-.14 2.24-.75 4.66-2.49 6.47-4.64 1.56-1.85 3.41-4.87 3.41-8.77-.02-6.77-5.58-10.52-5.81-10.67Z" fill="url(#d)"/><g filter="url(#e)"><path d="M22.29 3.88c-.39-.24-.85-.38-1.33-.4A2.682 2.682 0 0 0 18.22 6c-.01.15 0 .29.01.44-.84.14-1.6.64-2.04 1.44l-5.32 9.15c-.7 1.22-2 1.97-3.41 1.97H3c-.55 0-1 .45-1 1v9c0 .55.45 1 1 1h7.58c3.72 0 7.37-1.12 10.4-3.28.64-.45 1.27-.97 1.88-1.55.64-.56 1.25-1.18 1.81-1.84 1.56-1.85 3.41-4.87 3.41-8.77.01-6.77-5.55-10.52-5.79-10.68ZM18.03 16.8c0-.24.06-.47.18-.68l3.01-5.45c.07-.12.12-.25.17-.37.96 1.33 1.44 2.76 1.44 4.26 0 .19-.01.37-.02.56-.14 1.75-1.62 3.09-3.38 3.09-.77 0-1.4-.63-1.4-1.41Z" fill="#FFBD3C"/><path d="M22.29 3.88c-.39-.24-.85-.38-1.33-.4A2.682 2.682 0 0 0 18.22 6c-.01.15 0 .29.01.44-.84.14-1.6.64-2.04 1.44l-5.32 9.15c-.7 1.22-2 1.97-3.41 1.97H3c-.55 0-1 .45-1 1v9c0 .55.45 1 1 1h7.58c3.72 0 7.37-1.12 10.4-3.28.64-.45 1.27-.97 1.88-1.55.64-.56 1.25-1.18 1.81-1.84 1.56-1.85 3.41-4.87 3.41-8.77.01-6.77-5.55-10.52-5.79-10.68ZM18.03 16.8c0-.24.06-.47.18-.68l3.01-5.45c.07-.12.12-.25.17-.37.96 1.33 1.44 2.76 1.44 4.26 0 .19-.01.37-.02.56-.14 1.75-1.62 3.09-3.38 3.09-.77 0-1.4-.63-1.4-1.41Z" fill="url(#f)"/><path d="M22.29 3.88c-.39-.24-.85-.38-1.33-.4A2.682 2.682 0 0 0 18.22 6c-.01.15 0 .29.01.44-.84.14-1.6.64-2.04 1.44l-5.32 9.15c-.7 1.22-2 1.97-3.41 1.97H3c-.55 0-1 .45-1 1v9c0 .55.45 1 1 1h7.58c3.72 0 7.37-1.12 10.4-3.28.64-.45 1.27-.97 1.88-1.55.64-.56 1.25-1.18 1.81-1.84 1.56-1.85 3.41-4.87 3.41-8.77.01-6.77-5.55-10.52-5.79-10.68ZM18.03 16.8c0-.24.06-.47.18-.68l3.01-5.45c.07-.12.12-.25.17-.37.96 1.33 1.44 2.76 1.44 4.26 0 .19-.01.37-.02.56-.14 1.75-1.62 3.09-3.38 3.09-.77 0-1.4-.63-1.4-1.41Z" fill="url(#g)"/><path d="M22.29 3.88c-.39-.24-.85-.38-1.33-.4A2.682 2.682 0 0 0 18.22 6c-.01.15 0 .29.01.44-.84.14-1.6.64-2.04 1.44l-5.32 9.15c-.7 1.22-2 1.97-3.41 1.97H3c-.55 0-1 .45-1 1v9c0 .55.45 1 1 1h7.58c3.72 0 7.37-1.12 10.4-3.28.64-.45 1.27-.97 1.88-1.55.64-.56 1.25-1.18 1.81-1.84 1.56-1.85 3.41-4.87 3.41-8.77.01-6.77-5.55-10.52-5.79-10.68ZM18.03 16.8c0-.24.06-.47.18-.68l3.01-5.45c.07-.12.12-.25.17-.37.96 1.33 1.44 2.76 1.44 4.26 0 .19-.01.37-.02.56-.14 1.75-1.62 3.09-3.38 3.09-.77 0-1.4-.63-1.4-1.41Z" fill="url(#h)"/><path d="M22.29 3.88c-.39-.24-.85-.38-1.33-.4A2.682 2.682 0 0 0 18.22 6c-.01.15 0 .29.01.44-.84.14-1.6.64-2.04 1.44l-5.32 9.15c-.7 1.22-2 1.97-3.41 1.97H3c-.55 0-1 .45-1 1v9c0 .55.45 1 1 1h7.58c3.72 0 7.37-1.12 10.4-3.28.64-.45 1.27-.97 1.88-1.55.64-.56 1.25-1.18 1.81-1.84 1.56-1.85 3.41-4.87 3.41-8.77.01-6.77-5.55-10.52-5.79-10.68ZM18.03 16.8c0-.24.06-.47.18-.68l3.01-5.45c.07-.12.12-.25.17-.37.96 1.33 1.44 2.76 1.44 4.26 0 .19-.01.37-.02.56-.14 1.75-1.62 3.09-3.38 3.09-.77 0-1.4-.63-1.4-1.41Z" fill="url(#i)"/></g><path d="M16.21 7.843a2.886 2.886 0 0 1 4.995 2.892l-4.314 7.718c-.799 1.38-2.557 1.574-3.937.775-1.38-.798-1.897-2.517-1.099-3.896l4.355-7.489Z" fill="url(#j)"/><path d="M28.08 14.56a12.35 12.35 0 0 1-.566 3.69l-5.608 6.031-2.562-6.031-.017-.044c.034.003.068.004.103.004 1.76 0 3.24-1.34 3.38-3.09l.001-.027c.01-.18.019-.352.019-.533 0-1.493-.475-2.916-1.426-4.24a2.887 2.887 0 0 0-1.25-3.529c-.67-.388-1.263-.416-1.924-.351v-.014a2.682 2.682 0 0 1 2.73-2.946c.48.02.94.16 1.33.4.24.16 5.8 3.91 5.79 10.68Z" fill="url(#k)"/><path d="M28.08 14.56a12.35 12.35 0 0 1-.566 3.69l-5.608 6.031-2.562-6.031-.017-.044c.034.003.068.004.103.004 1.76 0 3.24-1.34 3.38-3.09l.001-.027c.01-.18.019-.352.019-.533 0-1.493-.475-2.916-1.426-4.24a2.887 2.887 0 0 0-1.25-3.529c-.67-.388-1.263-.416-1.924-.351v-.014a2.682 2.682 0 0 1 2.73-2.946c.48.02.94.16 1.33.4.24.16 5.8 3.91 5.79 10.68Z" fill="url(#l)"/><g filter="url(#m)"><path d="M26.346 12.248c.514 4.95-3.035 10.087-6.911 11.255" stroke="url(#n)" stroke-width="2" stroke-linecap="round"/></g><defs><radialGradient id="a" cx="0" cy="0" r="1" gradientUnits="userSpaceOnUse" gradientTransform="matrix(4.21875 -.35937 .48802 5.72894 18.719 4.219)"><stop stop-color="#D59430"/><stop offset="1" stop-color="#D59430" stop-opacity="0"/></radialGradient><radialGradient id="b" cx="0" cy="0" r="1" gradientUnits="userSpaceOnUse" gradientTransform="rotate(-32.25 29.997 -35.324) scale(4.48566 10.4433)"><stop stop-color="#D59430"/><stop offset=".948" stop-color="#D59430" stop-opacity="0"/></radialGradient><radialGradient id="c" cx="0" cy="0" r="1" gradientUnits="userSpaceOnUse" gradientTransform="rotate(-65.731 31.443 -8.659) scale(8.57053 2.66744)"><stop stop-color="#D59430"/><stop offset="1" stop-color="#D59430" stop-opacity="0"/></radialGradient><radialGradient id="d" cx="0" cy="0" r="1" gradientUnits="userSpaceOnUse" gradientTransform="matrix(-11.375 -15.87497 8.3679 -5.9959 31.188 17.594)"><stop offset=".914" stop-color="#D6B05C" stop-opacity="0"/><stop offset="1" stop-color="#D6B05C"/></radialGradient><radialGradient id="f" cx="0" cy="0" r="1" gradientUnits="userSpaceOnUse" gradientTransform="rotate(-23.656 59.681 13.277) scale(30.9972 29.5828)"><stop offset=".869" stop-color="#FFE749" stop-opacity="0"/><stop offset="1" stop-color="#FFE749"/></radialGradient><radialGradient id="g" cx="0" cy="0" r="1" gradientUnits="userSpaceOnUse" gradientTransform="matrix(-3.50242 5.60395 -3.9277 -2.45478 18.968 17.805)"><stop offset=".141" stop-color="#FFE031"/><stop offset="1" stop-color="#FFE031" stop-opacity="0"/></radialGradient><radialGradient id="h" cx="0" cy="0" r="1" gradientUnits="userSpaceOnUse" gradientTransform="matrix(10.414 0 0 5.43789 2.25 23.83)"><stop stop-color="#FFD231"/><stop offset="1" stop-color="#FFD231" stop-opacity="0"/></radialGradient><radialGradient id="i" cx="0" cy="0" r="1" gradientUnits="userSpaceOnUse" gradientTransform="matrix(2.05477 3.5407 -3.62102 2.10138 9.02 16.74)"><stop stop-color="#E19B38"/><stop offset="1" stop-color="#E19B38" stop-opacity="0"/></radialGradient><radialGradient id="j" cx="0" cy="0" r="1" gradientUnits="userSpaceOnUse" gradientTransform="matrix(-1.81252 2.74999 -4.21793 -2.78005 20.563 6.875)"><stop stop-color="#FFE53F"/><stop offset="1" stop-color="#FFE53F" stop-opacity="0"/></radialGradient><radialGradient id="k" cx="0" cy="0" r="1" gradientUnits="userSpaceOnUse" gradientTransform="matrix(5.03125 .0625 -.06485 5.22067 19.969 13.656)"><stop stop-color="#E78923"/><stop offset="1" stop-color="#E78923" stop-opacity="0"/></radialGradient><radialGradient id="l" cx="0" cy="0" r="1" gradientUnits="userSpaceOnUse" gradientTransform="matrix(3.08216 -.98069 1.24583 3.91547 19.622 10.24)"><stop offset=".36" stop-color="#DA7834"/><stop offset="1" stop-color="#DA7834" stop-opacity="0"/></radialGradient><filter id="e" x="2" y="2.479" width="26.58" height="27.521" filterUnits="userSpaceOnUse" color-interpolation-filters="sRGB"><feFlood flood-opacity="0" result="BackgroundImageFix"/><feBlend in="SourceGraphic" in2="BackgroundImageFix" result="shape"/><feColorMatrix in="SourceAlpha" values="0 0 0 0 0 0 0 0 0 0 0 0 0 0 0 0 0 0 127 0" result="hardAlpha"/><feOffset dx=".5" dy="-1"/><feGaussianBlur stdDeviation="1"/><feComposite in2="hardAlpha" operator="arithmetic" k2="-1" k3="1"/><feColorMatrix values="0 0 0 0 0.984314 0 0 0 0 0.521569 0 0 0 0 0.341176 0 0 0 1 0"/><feBlend in2="shape" result="effect1_innerShadow_20020_1880"/></filter><filter id="m" x="16.934" y="9.748" width="11.961" height="16.255" filterUnits="userSpaceOnUse" color-interpolation-filters="sRGB"><feFlood flood-opacity="0" result="BackgroundImageFix"/><feBlend in="SourceGraphic" in2="BackgroundImageFix" result="shape"/><feGaussianBlur stdDeviation=".75" result="effect1_foregroundBlur_20020_1880"/></filter><linearGradient id="n" x1="26.907" y1="16.171" x2="24.539" y2="26.251" gradientUnits="userSpaceOnUse"><stop stop-color="#FFE338"/><stop offset="1" stop-color="#FFE338" stop-opacity="0"/></linearGradient></defs></svg>
